source/img/tg.svg

<svg width="80" height="80" viewBox="0 0 80 80" fill="none" xmlns="http://www.w3.org/2000/svg">
<g clip-path="url(#clip0_3_661)">
<path fill-rule="evenodd" clip-rule="evenodd" d="M80 40C80 62.0914 62.0914 80 40 80C17.9086 80 0 62.0914 0 40C0 17.9086 17.9086 0 40 0C62.0914 0 80 17.9086 80 40ZM41.4331 29.5295C37.5425 31.1477 29.7668 34.497 18.106 39.5774C16.2125 40.3304 15.2206 41.0671 15.1303 41.7874C14.9777 43.0047 16.5021 43.484 18.578 44.1368C18.8603 44.2256 19.1529 44.3176 19.4528 44.4151C21.4952 45.079 24.2425 45.8556 25.6707 45.8865C26.9662 45.9145 28.4121 45.3804 30.0085 44.2842C40.9036 36.9297 46.5276 33.2124 46.8807 33.1323C47.1298 33.0757 47.475 33.0046 47.7089 33.2125C47.9428 33.4204 47.9198 33.8141 47.895 33.9197C47.744 34.5635 41.7602 40.1267 38.6635 43.0056C37.6981 43.9031 37.0133 44.5398 36.8733 44.6852C36.5597 45.0109 36.2401 45.319 35.933 45.6151C34.0356 47.4441 32.6127 48.8158 36.0118 51.0557C37.6452 52.1321 38.9523 53.0222 40.2562 53.9102C41.6803 54.88 43.1007 55.8473 44.9384 57.0519C45.4066 57.3588 45.8538 57.6776 46.2893 57.9881C47.9466 59.1696 49.4355 60.2311 51.275 60.0618C52.3439 59.9635 53.4479 58.9584 54.0086 55.9609C55.3338 48.8769 57.9385 33.5279 58.5404 27.203C58.5932 26.6488 58.5268 25.9396 58.4736 25.6283C58.4203 25.317 58.3089 24.8734 57.9043 24.545C57.425 24.1562 56.6852 24.0742 56.3543 24.08C54.8498 24.1065 52.5416 24.9091 41.4331 29.5295Z" fill="#CECFDB"/>
</g>
<defs>
<clipPath id="clip0_3_661">
<rect width="80" height="80" fill="white"/>
</clipPath>
</defs>
</svg>

<svg width="80" height="80" fill="none" xmlns="http://www.w3.org/2000/svg"><g clip-path="url(#a)"><path fill-rule="evenodd" clip-rule="evenodd" d="M80 40c0 22.091-17.909 40-40 40S0 62.091 0 40 17.909 0 40 0s40 17.909 40 40ZM41.433 29.53c-3.89 1.618-11.666 4.967-23.327 10.047-1.894.753-2.885 1.49-2.976 2.21-.152 1.218 1.372 1.697 3.448 2.35.282.089.575.18.875.278 2.042.664 4.79 1.44 6.218 1.471 1.295.028 2.741-.506 4.338-1.602C40.904 36.93 46.528 33.212 46.88 33.132c.249-.056.594-.127.828.08.234.208.21.602.186.708-.151.643-6.135 6.207-9.232 9.086a109.11 109.11 0 0 0-1.79 1.68c-.313.325-.633.633-.94.93-1.897 1.828-3.32 3.2.079 5.44a315.594 315.594 0 0 1 4.244 2.854c1.424.97 2.845 1.937 4.682 3.142.469.307.916.626 1.351.936 1.658 1.182 3.146 2.243 4.986 2.074 1.069-.098 2.173-1.104 2.734-4.101 1.325-7.084 3.93-22.433 4.531-28.758a7.057 7.057 0 0 0-.066-1.575c-.054-.311-.165-.755-.57-1.083-.479-.389-1.219-.47-1.55-.465-1.504.027-3.812.83-14.92 5.45Z" fill="#CECFDB"/></g><defs><clipPath id="a"><path fill="#fff" d="M0 0h80v80H0z"/></clipPath></defs></svg>
